src/assets/img/icons/duotone-icons/Devices/iMac.svg

<?xml version="1.0" encoding="UTF-8"?>
<svg width="24px" height="24px" viewBox="0 0 24 24" version="1.1" xmlns="http://www.w3.org/2000/svg" xmlns:xlink="http://www.w3.org/1999/xlink">
    <!-- Generator: Sketch 52.2 (67145) - http://www.bohemiancoding.com/sketch -->
    <title>Stockholm-icons / Devices / iMac</title>
    <desc>Created with Sketch.</desc>
    <g id="Stockholm-icons-/-Devices-/-iMac" stroke="none" stroke-width="1" fill="none" fill-rule="evenodd">
        <rect id="bound" x="0" y="0" width="24" height="24"></rect>
        <path d="M5,5 L5,16 L19,16 L19,5 L5,5 Z M5,3 L19,3 C20.4201608,3 21,3.7163444 21,4.6 L21,17.4 C21,18.2836556 20.4201608,19 19,19 L5,19 C3.57983921,19 3,18.2836556 3,17.4 L3,4.6 C3,3.7163444 3.57983921,3 5,3 Z M12,18 C12.2761424,18 12.5,17.7761424 12.5,17.5 C12.5,17.2238576 12.2761424,17 12,17 C11.7238576,17 11.5,17.2238576 11.5,17.5 C11.5,17.7761424 11.7238576,18 12,18 Z" id="Combined-Shape" fill="#335EEA"></path>
        <polygon id="Combined-Shape" fill="#335EEA" opacity="0.3" points="5 5 5 16 19 16 19 5"></polygon>
        <rect id="Rectangle-4" fill="#335EEA" opacity="0.3" x="10" y="20" width="4" height="1" rx="0.5"></rect>
    </g>
</svg>

<svg width="24" height="24" viewBox="0 0 24 24" xmlns="http://www.w3.org/2000/svg"><g fill="none" fill-rule="evenodd"><path d="M0 0h24v24H0z"/><path d="M5 5v11h14V5H5zm0-2h14c1.42 0 2 .716 2 1.6v12.8c0 .884-.58 1.6-2 1.6H5c-1.42 0-2-.716-2-1.6V4.6C3 3.716 3.58 3 5 3zm7 15a.5.5 0 100-1 .5.5 0 000 1z" fill="#335EEA"/><path fill="#335EEA" opacity=".3" d="M5 5v11h14V5z"/><rect fill="#335EEA" opacity=".3" x="10" y="20" width="4" height="1" rx=".5"/></g></svg>
